.local/share/icons/Gruvbox-Plus-Dark/actions/16/text_word_spacing.svg

<svg width="16" height="16" version="1.1" xmlns="http://www.w3.org/2000/svg">
  <defs>
    <style id="current-color-scheme" type="text/css">.ColorScheme-Text { color:#ebdbb2; } .ColorScheme-Highlight { color:#458588; }</style>
  </defs>
  <path class="ColorScheme-Text" d="m8.5 13.5c0 0.276-0.2239 0.5-0.5 0.5s-0.5-0.224-0.5-0.5 0.2239-0.5 0.5-0.5 0.5 0.224 0.5 0.5zm-2.5-1.5-4 1.5 4 1.5zm4 0v3l4-1.5zm2-11v10h1v-5h1.5c0.5 0 0.5 0.5 0.5 0.5v4.5h1v-5s0-1-1-1h-2v-4zm-3 0v2h-1v1h1v6c0 1 1 1 1 1h1v-1h-1v-6h1v-1h-1v-2zm-7 4v6h1v-5h1.5c0.5 0 0.5 0.5 0.5 0.5v4.5h1v-5s0-1-1-1zm-2-2h1v1h-1zm0 2h1v6h-1z" fill="currentColor"/>
</svg>

<svg xmlns="http://www.w3.org/2000/svg" width="16" height="16" version="1.1">
 <defs>
  <style id="current-color-scheme" type="text/css">
   .ColorScheme-Text { color:#565656; } .ColorScheme-Highlight { color:#4285f4; }
  </style>
 </defs>
 <path style="fill:currentColor" class="ColorScheme-Text" d="M 8.5,13.5 C 8.5,13.776 8.2761,14 8,14 7.7239,14 7.5,13.776 7.5,13.5 7.5,13.224 7.7239,13 8,13 8.2761,13 8.5,13.224 8.5,13.5 Z M 6,12 2,13.5 6,15 Z M 10,12 V 15 L 14,13.5 Z M 12,1 V 11 H 13 V 6 H 14.5 C 15,6 15,6.5 15,6.5 V 11 H 16 V 6 C 16,6 16,5 15,5 H 13 V 1 Z M 9,1 V 3 H 8 V 4 H 9 V 10 C 9,11 10,11 10,11 H 11 V 10 H 10 V 4 H 11 V 3 H 10 V 1 Z M 2,5 V 11 H 3 V 6 H 4.5 C 5,6 5,6.5 5,6.5 V 11 H 6 V 6 C 6,6 6,5 5,5 Z M 0,3 H 1 V 4 H 0 Z M 0,5 H 1 V 11 H 0 Z"/>
</svg>
